X:1
T:Title
L:1/8
M:3/4
K:D
V:1 treble nm="Grand Piano"
V:1
 z2 z2[Q:1/4=100] DE | F4 G2 | F3 E ED | EF ED DC | D4 DE | F4 G2 | AF GE FD | EF ED DC | D4 A2 | %9
 d4 c2 | B4 c2 | d2 A4- | A4 A2 | A4 B2 | AG F2 A2 | G4 B2 | B6- | B4 B2 | AG FE FG | F4 E2 | D6- | %21
 D4 z2 |] %22

